assets/img/cds-data-signature.svg

<svg fill="none" height="71" viewBox="0 0 70 71" width="70" xmlns="http://www.w3.org/2000/svg"><g fill="#2563eb"><path d="m52.8892 51.2377c-.0776 4.0166-.5447 7.9508-1.3997 11.8851-.2333.9834-.8556 1.4751-1.5554 1.3116-.778-.1641-1.1665-.9017-.9332-1.8033.8556-3.9342 1.3222-7.9508 1.3222-11.9674 0-10.0818-6.6114-18.3607-16.0222-20.1639-10.3444-1.9674-20.5333 5.7375-22.0888 16.7212-.0776.6559-.1558 1.3934-.2333 2.0492-.0776.9834-.6223 1.4751-1.3998 1.3934-.69983-.0818-1.1664-.6558-1.1664-1.5575.23329-4.8359 1.7887-9.2625 4.8221-12.9508 5.8333-7.2133 13.3002-10.0818 22.011-7.7868 8.711 2.2951 14.0778 8.4426 16.1778 17.623.1557.7375.2332 1.4751.3108 2.295.0765.8211.1547 1.8863.1547 2.952z"/><path d="m58.0224 51.8116c-.0776.9834-.0776 2.0491-.1557 3.0326-.0776.9834-.6223 1.5575-1.3222 1.5575-.778 0-1.3221-.7376-1.2446-1.7216.2333-3.3608.2333-6.7216-.4665-10.0818-2.1778-10.1641-10.5003-18.2787-20.3778-19.5901-10.422-1.3934-19.911 3.7708-24.88881 13.5242-.46658.9017-1.01127 1.1476-1.71111.9835-.77799-.2459-1.08885-1.1475-.69987-1.9674 1.08886-2.2132 2.41097-4.3442 4.04459-6.1475 7.5444-8.2785 16.6444-11.3116 27.0666-8.1967 10.5777 3.1155 16.8777 10.7381 19.2888 21.9672.1557.7375.2333 1.4751.3109 2.295.0781 1.394.0781 2.8692.1563 4.3449z"/><path d="m47.8334 51.1558c-.1552 5.5735-1.1664 10.9835-2.8 16.3115-.3109.9834-.9331 1.3933-1.7111 1.1475-.778-.3276-1.0113-.9835-.6999-2.0492 1.5554-4.9183 2.3335-9.9183 2.5667-15 .2333-7.705-4.2779-14.1801-11.0444-15.6557-8.8667-1.9669-16.8778 4.8365-17.1111 14.3448-.0776 2.2951-.389 4.5084-1.0889 6.7216-.0776.1641-.0776.41-.1557.5741-.3109.6558-.9332.9834-1.5554.7375-.6223-.2458-1.0889-.9016-.8556-1.5575 1.0113-2.8691.9332-5.8199 1.2446-8.7707.778-7.4592 6.6114-13.7702 13.5334-14.9181 9.2557-1.5575 17.5 4.5084 19.2111 14.1802.3885 1.3939.3885 2.7049.4661 3.9349z"/><path d="m62.2226 42.7132c0 .8199-.389 1.3116-1.0112 1.4751-.6223.1641-1.2446-.2459-1.4779-.9834-.2333-.9017-.4666-1.8033-.778-2.7049-4.1217-11.8035-12.0552-18.9344-23.8778-20.7377-9.7998-1.5575-18.1999 1.8033-25.19992 9.1801-.15571.1641-.2333.2459-.31088.41-.62229.6558-1.32215.7376-1.94444.1641-.54471-.5741-.54471-1.3116.07758-2.0492 3.18906-3.6067 6.92216-6.3934 11.27766-8.2785 17.9666-7.8691 38.4221 2.9508 43.2443 22.8688v.6558z"/><path d="m42.7004 51.9754c-.3109 6.0657-1.6336 11.8034-3.7332 17.3771-.3109.9016-1.0113 1.3116-1.7888.9834-.6998-.3276-.9331-1.0658-.6223-1.9674 1.6337-4.2624 2.8-8.6067 3.1891-13.1967.1557-2.2132.3108-4.4259.0775-6.6392-.5447-4.3442-4.4336-7.5409-8.6333-7.6226-4.2779 0-8.0886 3.1967-8.789 7.541-.3109 1.8032-.2333 3.6067-.4666 5.4099-.3108 2.9509-1.2445 5.6559-2.3334 8.3608-.3109.8199-1.0889 1.0658-1.7111.7376-.6223-.3276-.9332-1.0657-.6223-1.8033.9331-2.4591 1.7887-4.9183 2.1001-7.6226.1557-1.6392.1557-3.2784.389-4.8359.6999-5.9835 5.6-10.4918 11.4333-10.4918 5.6776 0 10.6554 4.5083 11.3558 10.41.0771 1.1475.0771 2.2126.1552 3.3602z"/><path d="m32.5891 11.2379c11.9.4917 22.4778 6.3934 29.8666 18.2786.1557.2459.2333.41.389.6558.2333.6559.0776 1.3117-.4665 1.6392-.5448.3277-1.1665.2459-1.6337-.2458-.0775-.1641-.2333-.2459-.3108-.41-5.6777-9.2624-13.6888-14.9999-24.0333-16.7213-8.8667-1.4751-17.0333.5741-24.5777 5.7376-.2333.1641-.4666.3276-.6999.4099-.5447.3277-1.24457.0818-1.63361-.4099-.389-.5741-.31087-1.2293.15571-1.7216.15571-.1641.389-.3276.6223-.4917 6.3775-4.4254 13.2997-6.6386 22.3222-6.721z"/><path d="m37.5671 51.8115c-.2333 6.0658-1.7888 11.8851-4.1223 17.3771-.1557.4099-.6222.9016-1.0112 1.0657-.3109.0818-.9332-.1641-1.1665-.4099-.4666-.41-.389-.9835-.1557-1.5576.8556-2.295 1.7111-4.59 2.411-6.9675 1.0113-3.5242 1.5554-7.1309 1.5554-10.8199 0-2.4592-1.6336-4.2624-3.8112-4.2624-2.1778 0-3.8113 1.8032-3.8113 4.2624-.2327 5.4106-1.6325 10.4106-3.7326 15.1639-.389.8199-1.0113 1.0658-1.7112.8199-.6998-.3276-.9331-1.0657-.5447-1.9673 1.3998-3.2784 2.5667-6.7216 3.0334-10.3277.1557-1.4752.1557-3.0327.3108-4.5901.389-3.6883 3.1891-6.2293 6.6889-6.0657 3.2667.1641 5.911 3.0327 6.0667 6.6392.0006.6558.0006 1.1475.0006 1.6398z"/><path d="m60.1998 18.369c.2333.4099.2333.9834-.0775 1.3116-.1557.1641-.3109.4099-.4666.4917-.5447.3276-1.0113.0817-1.4779-.3276-1.3222-1.1476-2.5667-2.3768-3.8889-3.3608-7.9335-5.9835-16.8-8.52432-26.5222-7.70509-4.1222.32762-8.0886 1.39339-11.9774 3.11489-.8556.3276-1.3998.2459-1.7888-.3276-.4666-.7376-.1557-1.63921.778-2.04919 2.9557-1.31161 6.0667-2.29508 9.2557-2.86915 10.2669-1.80327 19.8333.1641 28.7777 5.65584 2.4892 1.5576 4.8221 3.4427 6.9997 5.5735.1552.0818.3103.2459.3885.4917z"/><path d="m31.1112.664064c7.3113-.081761 14.3111 1.557526 20.8444 4.999996.1557.08176.2333.16409.389.16409.778.40995 1.0889 1.22927.778 1.96736-.3109.73757-1.0888.90166-1.8668.49171-3.9665-2.04918-8.0886-3.52429-12.4447-4.34425-4.822-.90167-9.7222-.90167-14.5444-.1641-.2333 0-.4666.08176-.6223.08176-.778.08176-1.3221-.40995-1.3997-1.06575-.1557-.81933.3109-1.47511 1.0889-1.55693 1.4779-.245858 2.8776-.491715 4.3554-.574048 1.167-.081761 2.3334 0 3.4223 0z"/><path d="m32.4337 52.2213c-.2333 5.9835-1.7887 11.4751-4.1222 16.7213-.389.8199-1.0888 1.0658-1.7111.7376-.6999-.3276-.9331-1.0657-.5447-1.9674 1.3997-3.2783 2.6443-6.6391 3.189-10.164.3109-2.0492.4666-4.0984.6223-6.2294.0776-.9834.5447-1.6392 1.2446-1.6392.778 0 1.2445.6558 1.2445 1.6392.0776.4106.0776.7387.0776.9023z"/><path d="m.00048828.5h7.54443172v2.62324h-4.97777v5.32757h-2.56666172z"/><path d="m62.3779 3.20492v-2.70492h7.6221v7.95081h-2.4892v-5.32757c-1.7105.08176-3.4218.08176-5.1329.08176z"/><path d="m2.48916 67.7951h5.05527v2.6232h-7.54443v-7.9508h2.48916z"/><path d="m62.3781 70.5v-2.6232h5.0552v-5.3276h2.5667v7.9508h-7.6221z"/></g></svg>

<svg width="70" height="71" viewBox="0 0 70 71" fill="none" xmlns="http://www.w3.org/2000/svg">
<path d="M52.8892 51.2377C52.8116 55.2543 52.3445 59.1885 51.4895 63.1228C51.2562 64.1062 50.6339 64.5979 49.9341 64.4344C49.1561 64.2703 48.7676 63.5327 49.0009 62.6311C49.8565 58.6969 50.3231 54.6803 50.3231 50.6637C50.3231 40.5819 43.7117 32.303 34.3009 30.4998C23.9565 28.5324 13.7676 36.2373 12.2121 47.221C12.1345 47.8769 12.0563 48.6144 11.9788 49.2702C11.9012 50.2536 11.3565 50.7453 10.579 50.6636C9.87917 50.5818 9.4126 50.0078 9.4126 49.1061C9.64589 44.2702 11.2013 39.8436 14.2347 36.1553C20.068 28.942 27.5349 26.0735 36.2457 28.3685C44.9567 30.6636 50.3235 36.8111 52.4235 45.9915C52.5792 46.729 52.6567 47.4666 52.7343 48.2865C52.8108 49.1076 52.889 50.1728 52.889 51.2385L52.8892 51.2377Z" fill="#2563eb"/>
<path d="M58.0224 51.8116C57.9448 52.795 57.9448 53.8607 57.8667 54.8442C57.7891 55.8276 57.2444 56.4017 56.5445 56.4017C55.7665 56.4017 55.2224 55.6641 55.2999 54.6801C55.5332 51.3193 55.5332 47.9585 54.8334 44.5983C52.6556 34.4342 44.3331 26.3196 34.4556 25.0082C24.0336 23.6148 14.5446 28.779 9.56679 38.5324C9.10021 39.4341 8.55552 39.68 7.85568 39.5159C7.07769 39.27 6.76683 38.3684 7.15581 37.5485C8.24467 35.3353 9.56678 33.2043 11.2004 31.401C18.7448 23.1225 27.8448 20.0894 38.267 23.2043C48.8447 26.3198 55.1447 33.9424 57.5558 45.1715C57.7115 45.909 57.7891 46.6466 57.8667 47.4665C57.9448 48.8605 57.9448 50.3357 58.023 51.8114L58.0224 51.8116Z" fill="#2563eb"/>
<path d="M47.8334 51.1558C47.6782 56.7293 46.667 62.1393 45.0334 67.4673C44.7225 68.4507 44.1003 68.8606 43.3223 68.6148C42.5443 68.2872 42.311 67.6313 42.6224 66.5656C44.1778 61.6473 44.9559 56.6473 45.1891 51.5656C45.4224 43.8606 40.9112 37.3855 34.1447 35.9099C25.278 33.943 17.2669 40.7464 17.0336 50.2547C16.956 52.5498 16.6446 54.7631 15.9447 56.9763C15.8671 57.1404 15.8671 57.3863 15.789 57.5504C15.4781 58.2062 14.8558 58.5338 14.2336 58.2879C13.6113 58.0421 13.1447 57.3863 13.378 56.7304C14.3893 53.8613 14.3112 50.9105 14.6226 47.9597C15.4006 40.5005 21.234 34.1895 28.156 33.0416C37.4117 31.4841 45.656 37.55 47.3671 47.2218C47.7556 48.6157 47.7556 49.9267 47.8332 51.1567L47.8334 51.1558Z" fill="#2563eb"/>
<path d="M62.2226 42.7132C62.2226 43.5331 61.8336 44.0248 61.2114 44.1883C60.5891 44.3524 59.9668 43.9424 59.7335 43.2049C59.5002 42.3032 59.2669 41.4016 58.9555 40.5C54.8338 28.6965 46.9003 21.5656 35.0777 19.7623C25.2779 18.2048 16.8778 21.5656 9.87778 28.9424C9.72207 29.1065 9.64448 29.1883 9.5669 29.3524C8.94461 30.0082 8.24475 30.09 7.62246 29.5165C7.07775 28.9424 7.07775 28.2049 7.70004 27.4673C10.8891 23.8606 14.6222 21.0739 18.9777 19.1888C36.9443 11.3197 57.3998 22.1396 62.222 42.0576V42.7134L62.2226 42.7132Z" fill="#2563eb"/>
<path d="M42.7004 51.9754C42.3895 58.0411 41.0668 63.7788 38.9672 69.3525C38.6563 70.2541 37.9559 70.6641 37.1784 70.3359C36.4786 70.0083 36.2453 69.2701 36.5561 68.3685C38.1898 64.1061 39.3561 59.7618 39.7452 55.1718C39.9009 52.9586 40.056 50.7459 39.8227 48.5326C39.278 44.1884 35.3891 40.9917 31.1894 40.91C26.9115 40.91 23.1008 44.1067 22.4004 48.451C22.0895 50.2542 22.1671 52.0577 21.9338 53.8609C21.623 56.8118 20.6893 59.5168 19.6004 62.2217C19.2895 63.0416 18.5115 63.2875 17.8893 62.9593C17.267 62.6317 16.9561 61.8936 17.267 61.156C18.2001 58.6969 19.0557 56.2377 19.3671 53.5334C19.5228 51.8942 19.5228 50.255 19.7561 48.6975C20.456 42.714 25.3561 38.2057 31.1894 38.2057C36.867 38.2057 41.8448 42.714 42.5452 48.6157C42.6223 49.7632 42.6223 50.8283 42.7004 51.9759L42.7004 51.9754Z" fill="#2563eb"/>
<path d="M32.5891 11.2379C44.4891 11.7296 55.0669 17.6313 62.4557 29.5165C62.6114 29.7624 62.689 29.9265 62.8447 30.1723C63.078 30.8282 62.9223 31.484 62.3782 31.8115C61.8334 32.1392 61.2117 32.0574 60.7445 31.5657C60.667 31.4016 60.5112 31.3198 60.4337 31.1557C54.756 21.8933 46.7449 16.1558 36.4004 14.4344C27.5337 12.9593 19.3671 15.0085 11.8227 20.172C11.5894 20.3361 11.3561 20.4996 11.1228 20.5819C10.5781 20.9096 9.87823 20.6637 9.48919 20.172C9.10019 19.5979 9.17832 18.9427 9.6449 18.4504C9.80061 18.2863 10.0339 18.1228 10.2672 17.9587C16.6447 13.5333 23.5669 11.3201 32.5894 11.2377L32.5891 11.2379Z" fill="#2563eb"/>
<path d="M37.5671 51.8115C37.3338 57.8773 35.7783 63.6966 33.4448 69.1886C33.2891 69.5985 32.8226 70.0902 32.4336 70.2543C32.1227 70.3361 31.5004 70.0902 31.2671 69.8444C30.8005 69.4344 30.8781 68.8609 31.1114 68.2868C31.967 65.9918 32.8225 63.6968 33.5224 61.3193C34.5337 57.7951 35.0778 54.1884 35.0778 50.4994C35.0778 48.0402 33.4442 46.237 31.2666 46.237C29.0888 46.237 27.4553 48.0402 27.4553 50.4994C27.2226 55.91 25.8228 60.91 23.7227 65.6633C23.3337 66.4832 22.7114 66.7291 22.0115 66.4832C21.3117 66.1556 21.0784 65.4175 21.4668 64.5159C22.8666 61.2375 24.0335 57.7943 24.5002 54.1882C24.6559 52.713 24.6559 51.1555 24.811 49.5981C25.2 45.9098 28.0001 43.3688 31.4999 43.5324C34.7666 43.6965 37.4109 46.5651 37.5666 50.1716C37.5672 50.8274 37.5672 51.3191 37.5672 51.8114L37.5671 51.8115Z" fill="#2563eb"/>
<path d="M60.1998 18.369C60.4331 18.7789 60.4331 19.3524 60.1223 19.6806C59.9666 19.8447 59.8114 20.0905 59.6557 20.1723C59.111 20.4999 58.6444 20.254 58.1778 19.8447C56.8556 18.6971 55.6111 17.4679 54.2889 16.4839C46.3554 10.5004 37.4889 7.95958 27.7667 8.77881C23.6445 9.10643 19.6781 10.1722 15.7893 11.8937C14.9337 12.2213 14.3895 12.1396 14.0005 11.5661C13.5339 10.8285 13.8448 9.92689 14.7785 9.51691C17.7342 8.2053 20.8452 7.22183 24.0342 6.64776C34.3011 4.84449 43.8675 6.81186 52.8119 12.3036C55.3011 13.8612 57.634 15.7463 59.8116 17.8771C59.9668 17.9589 60.1219 18.123 60.2001 18.3688L60.1998 18.369Z" fill="#2563eb"/>
<path d="M31.1112 0.664064C38.4225 0.582303 45.4223 2.22159 51.9556 5.66406C52.1113 5.74582 52.1889 5.82815 52.3446 5.82815C53.1226 6.2381 53.4335 7.05742 53.1226 7.79551C52.8117 8.53308 52.0338 8.69717 51.2558 8.28722C47.2893 6.23804 43.1672 4.76293 38.8111 3.94297C33.9891 3.0413 29.0889 3.0413 24.2667 3.77887C24.0334 3.77887 23.8001 3.86063 23.6444 3.86063C22.8664 3.94239 22.3223 3.45068 22.2447 2.79488C22.089 1.97555 22.5556 1.31977 23.3336 1.23795C24.8115 0.992092 26.2112 0.746235 27.689 0.663902C28.856 0.582141 30.0224 0.663902 31.1113 0.663902L31.1112 0.664064Z" fill="#2563eb"/>
<path d="M32.4337 52.2213C32.2004 58.2048 30.645 63.6964 28.3115 68.9426C27.9225 69.7625 27.2227 70.0084 26.6004 69.6802C25.9005 69.3526 25.6673 68.6145 26.0557 67.7128C27.4554 64.4345 28.7 61.0737 29.2447 57.5488C29.5556 55.4996 29.7113 53.4504 29.867 51.3194C29.9446 50.336 30.4117 49.6802 31.1116 49.6802C31.8896 49.6802 32.3561 50.336 32.3561 51.3194C32.4337 51.73 32.4337 52.0581 32.4337 52.2217V52.2213Z" fill="#2563eb"/>
<path d="M0.000488281 0.5H7.54492V3.12324H2.56715V8.45081H0.000488281V0.5Z" fill="#2563eb"/>
<path d="M62.3779 3.20492V0.5H70V8.45081H67.5108V3.12324C65.8003 3.205 64.089 3.205 62.3779 3.205V3.20492Z" fill="#2563eb"/>
<path d="M2.48916 67.7951H7.54443V70.4183H0V62.4675H2.48916V67.7951Z" fill="#2563eb"/>
<path d="M62.3781 70.5V67.8768H67.4333V62.5492H70V70.5H62.3779H62.3781Z" fill="#2563eb"/>
</svg>
